icons/1_Primary/Verifone.svg

<svg width="1024" height="1024" viewBox="0 0 1024 1024" fill="none" xmlns="http://www.w3.org/2000/svg">
<g clip-path="url(#clip0_2_3834)">
<path d="M512 1024C794.77 1024 1024 794.77 1024 512C1024 229.23 794.77 0 512 0C229.23 0 0 229.23 0 512C0 794.77 229.23 1024 512 1024Z" fill="#9ABEFF"/>
<path d="M455 432.69H482.68L478 454.94H450.56L455 432.69ZM433.75 539.79C433.265 541.913 433.004 544.082 432.97 546.26C432.97 556.35 439.7 559.19 446.97 559.19C450.608 559.196 454.211 558.492 457.58 557.12L475.17 469.12H447.72C447.72 469.12 439.18 512.37 433.75 539.79ZM721.14 467.36C702.77 467.36 695.53 477.97 692.14 484.69H691.88L692.88 469.43H665.79C665.156 477.145 664.121 484.822 662.69 492.43C662.69 492.43 656.48 524.25 655.19 530.43C654.41 535.09 652.6 542.07 652.6 545.95C652.6 554.49 657 559.4 666.6 559.4C670.314 559.362 673.992 558.661 677.46 557.33L686.51 511.54C689.1 498.86 698.15 490.54 709.02 490.54C717.82 490.54 721.95 497.01 721.95 502.18C721.79 506.91 721.095 511.606 719.88 516.18L716 535.91C715.154 539.302 714.635 542.768 714.45 546.26C714.45 555.06 719.36 559.19 728.68 559.19C732.315 559.171 735.914 558.469 739.29 557.12L747.53 516C749.34 506.69 749.86 501.77 749.86 495.82C749.86 479 740 467.36 721.14 467.36ZM644.83 506.42C644.83 539.79 622.07 559.19 590.77 559.19C561.28 559.19 547.05 541.6 547.05 519.09C547.05 488.31 568.26 467.35 601.11 467.35C629.57 467.36 644.83 484.43 644.83 506.42ZM616.63 506.42C616.63 497.37 611.72 488.57 598.52 488.57C583.26 488.57 574.72 504.35 574.72 518.32C574.72 529.96 580.15 537.98 592.31 537.98C606 538 616.89 526.34 616.64 506.42H616.63ZM528.42 469.17L529.42 464C531.49 454.17 535.89 449.77 543.91 449.77C547.651 449.824 551.376 450.256 555.03 451.06L559.17 430.88C557.36 430.36 549.6 428.55 537.96 428.55C519.34 428.55 507.18 439.93 503.56 458.04L501.23 469.16H487.23L483.09 490.63H497.09C497.09 490.63 491.4 518.05 487.52 537.97C486.966 540.604 486.632 543.28 486.52 545.97C486.52 556.06 493.25 559.16 500.52 559.16C504.161 559.202 507.772 558.497 511.13 557.09L524.32 490.35H545.79L549.93 469.14L528.42 469.17ZM424.17 467.36C410.46 467.36 402.7 476.93 399.85 484.69H399.59L400.59 469.43H373.22C372.96 474.6 371.93 483.66 369.08 497.63C366.23 511.86 363.65 526.08 360.8 539.79C360.3 541.999 360.038 544.255 360.02 546.52C360.02 553.76 363.64 559.45 374.25 559.45C377.891 559.492 381.502 558.787 384.86 557.38L392.86 516.51C395.71 500.99 401.14 490.64 416.4 490.64C421.448 490.737 426.474 491.343 431.4 492.45L436.06 468.91C432.204 467.783 428.196 467.26 424.18 467.36H424.17ZM848.92 521.94H786.59C786.33 528.41 791.76 539.53 813.49 539.53C823.32 539.53 834.18 535.91 836 535.13V537.46C836 549.88 824.1 559.19 803.15 559.19C774.15 559.19 759.95 541.08 759.95 519.09C759.95 497.1 774.44 467.35 809.88 467.35C833.42 467.35 851.01 478.99 851.01 505.63C850.831 511.12 850.135 516.581 848.93 521.94H848.92ZM809.86 488.57C796.93 488.57 791.24 497.37 788.65 504.87H823.57C825.13 496.85 820.48 488.57 809.87 488.57H809.86ZM353.56 505.64C353.458 511.148 352.675 516.623 351.23 521.94H288.89C288.63 528.41 294.06 539.53 315.79 539.53C325.62 539.53 336.48 535.91 338.3 535.13V537.46C338.3 549.88 326.4 559.19 305.45 559.19C276.45 559.19 262.25 541.08 262.25 519.09C262.25 497.1 276.74 467.35 312.43 467.35C336 467.36 353.56 479 353.56 505.64ZM312.17 488.57C299.24 488.57 293.55 497.37 290.96 504.87H326.14C327.43 496.85 322.78 488.57 312.17 488.57ZM200.68 526.85V439.42H173V534.1C173 549.1 180.76 559.19 195.25 559.19C208.96 559.19 214.91 553.5 219.57 546.51C218.982 546.684 218.373 546.771 217.76 546.77C207.15 546.77 200.68 540 200.68 526.85ZM258.62 439.42L208.18 517.8V526.85C208.18 535.65 213.09 539.01 218.27 539.01C223.7 539.01 226.55 535.39 229.13 531.25C233.53 524.25 287.33 439.42 287.33 439.42H258.62Z" fill="white"/>
</g>
<defs>
<clipPath id="clip0_2_3834">
<rect width="1024" height="1024" fill="white"/>
</clipPath>
</defs>
</svg>

<svg width="1024" height="1024" fill="none" xmlns="http://www.w3.org/2000/svg"><g clip-path="url(#a)"><path d="M512 1024c282.77 0 512-229.23 512-512S794.77 0 512 0 0 229.23 0 512s229.23 512 512 512Z" fill="#9ABEFF"/><path d="M455 432.69h27.68L478 454.94h-27.44l4.44-22.25Zm-21.25 107.1a31.243 31.243 0 0 0-.78 6.47c0 10.09 6.73 12.93 14 12.93a28.007 28.007 0 0 0 10.61-2.07l17.59-88h-27.45s-8.54 43.25-13.97 70.67Zm287.39-72.43c-18.37 0-25.61 10.61-29 17.33h-.26l1-15.26h-27.09a223.413 223.413 0 0 1-3.1 23s-6.21 31.82-7.5 38c-.78 4.66-2.59 11.64-2.59 15.52 0 8.54 4.4 13.45 14 13.45a31.2 31.2 0 0 0 10.86-2.07l9.05-45.79c2.59-12.68 11.64-21 22.51-21 8.8 0 12.93 6.47 12.93 11.64a62.8 62.8 0 0 1-2.07 14L716 535.91a54.736 54.736 0 0 0-1.55 10.35c0 8.8 4.91 12.93 14.23 12.93a29.002 29.002 0 0 0 10.61-2.07l8.24-41.12c1.81-9.31 2.33-14.23 2.33-20.18 0-16.82-9.86-28.46-28.72-28.46Zm-76.31 39.06c0 33.37-22.76 52.77-54.06 52.77-29.49 0-43.72-17.59-43.72-40.1 0-30.78 21.21-51.74 54.06-51.74 28.46.01 43.72 17.08 43.72 39.07Zm-28.2 0c0-9.05-4.91-17.85-18.11-17.85-15.26 0-23.8 15.78-23.8 29.75 0 11.64 5.43 19.66 17.59 19.66 13.69.02 24.58-11.64 24.33-31.56h-.01Zm-88.21-37.25 1-5.17c2.07-9.83 6.47-14.23 14.49-14.23 3.741.054 7.466.486 11.12 1.29l4.14-20.18c-1.81-.52-9.57-2.33-21.21-2.33-18.62 0-30.78 11.38-34.4 29.49l-2.33 11.12h-14l-4.14 21.47h14s-5.69 27.42-9.57 47.34a48.714 48.714 0 0 0-1 8c0 10.09 6.73 13.19 14 13.19a26.66 26.66 0 0 0 10.61-2.07l13.19-66.74h21.47l4.14-21.21-21.51.03Zm-104.25-1.81c-13.71 0-21.47 9.57-24.32 17.33h-.26l1-15.26h-27.37c-.26 5.17-1.29 14.23-4.14 28.2-2.85 14.23-5.43 28.45-8.28 42.16a31.623 31.623 0 0 0-.78 6.73c0 7.24 3.62 12.93 14.23 12.93a26.66 26.66 0 0 0 10.61-2.07l8-40.87c2.85-15.52 8.28-25.87 23.54-25.87a74.986 74.986 0 0 1 15 1.81l4.66-23.54a38.899 38.899 0 0 0-11.88-1.55h-.01Zm424.75 54.58h-62.33c-.26 6.47 5.17 17.59 26.9 17.59 9.83 0 20.69-3.62 22.51-4.4v2.33c0 12.42-11.9 21.73-32.85 21.73-29 0-43.2-18.11-43.2-40.1 0-21.99 14.49-51.74 49.93-51.74 23.54 0 41.13 11.64 41.13 38.28a87.317 87.317 0 0 1-2.08 16.31h-.01Zm-39.06-33.37c-12.93 0-18.62 8.8-21.21 16.3h34.92c1.56-8.02-3.09-16.3-13.7-16.3h-.01Zm-456.3 17.07a66.876 66.876 0 0 1-2.33 16.3h-62.34c-.26 6.47 5.17 17.59 26.9 17.59 9.83 0 20.69-3.62 22.51-4.4v2.33c0 12.42-11.9 21.73-32.85 21.73-29 0-43.2-18.11-43.2-40.1 0-21.99 14.49-51.74 50.18-51.74 23.57.01 41.13 11.65 41.13 38.29Zm-41.39-17.07c-12.93 0-18.62 8.8-21.21 16.3h35.18c1.29-8.02-3.36-16.3-13.97-16.3Zm-111.49 38.28v-87.43H173v94.68c0 15 7.76 25.09 22.25 25.09 13.71 0 19.66-5.69 24.32-12.68a6.338 6.338 0 0 1-1.81.26c-10.61 0-17.08-6.77-17.08-19.92Zm57.94-87.43-50.44 78.38v9.05c0 8.8 4.91 12.16 10.09 12.16 5.43 0 8.28-3.62 10.86-7.76 4.4-7 58.2-91.83 58.2-91.83h-28.71Z" fill="#fff"/></g><defs><clipPath id="a"><path fill="#fff" d="M0 0h1024v1024H0z"/></clipPath></defs></svg>
